TCanvas/rotate.svg

<svg xmlns="http://www.w3.org/2000/svg" viewBox="0 0 1200 800" preserveAspectRatio="none" width="1200" height="800">
 <defs>
  <pattern id="pat_3003_416" patternUnits="userSpaceOnUse" width="4" height="4">
   <path d="M2,1h1v1h-1zM0,3h1v1h-1z" style="fill: green;"></path>
  </pattern>
 </defs>
 <path d="M0,0H1200V800H0Z" style="fill: white;"></path>
 <g>
  <g transform="rotate(-90,120,80) translate(-520,80)">
   <path d="M0,0H640V960H0Z" style="fill: white; stroke: black; stroke-width: 1;"></path>
   <svg x="0" y="0" overflow="hidden" width="640" height="960" viewBox="0 0 640 960">
    <g>
     <path d="M0,960h176v-1h3v1h3v-1h4v1h16v-1h3v1h3v-1h3v-4h3v1h4v1h3v-7h3v-3h3v2h3v-15h4v-2h3v4h3v-28h3v3h3v-26h4v-11h3v-34h3v-21h3v-24h3v-26h4v-24h3v-58h3v-50h3v-19h3v-72h4v-55h3v-71h3v-24h3v-73h3v-34h4v-67h3v-45h3v-22h3v-15h3v-41h4v-14h3v-39h3v26h3v-20h3v46h4v7h3v39h3v60h3v74h3v29h4v45h3v49h3v40h3v44h3v51h4v73h3v49h3v13h3v65h3v27h4v37h3v29h3v21h3v21h3v19h4v1h3v27h3v7h3v4h3v6h4v11h3v4h3v3h3v6h3v-3h4v2h3v-2h3v3h10v1h6v-2h3v2h189L640,963H0Z" style="stroke-linejoin: miter; stroke: #000099; stroke-width: 1; fill: url(#pat_3003_416);"></path>
    </g>
    <g>
     <path d="M0,919.33C0.22,919.76,6.01,931.22,6.4,932.04S12.38,945.58,12.8,946.42S17.3,958.7,19.2,958.03S25.31,942.62,25.6,941.89S31.7,926.51,32,925.77S38.06,911.09,38.4,910.31S44.39,897,44.8,896.16S50.66,884.87,51.2,883.94S56.79,875.27,57.6,874.24S62.67,868.58,64,867.55S68.29,864.54,70.4,864.3S74.75,864.38,76.8,864.79S82.13,868.14,83.2,869.21S89.01,876.64,89.6,877.59S95.63,889.03,96,889.84S102.15,904.99,102.4,905.68S108.61,924.1,108.8,924.71S114.4,945.35,115.2,946.39S120.62,951.04,121.6,949.98S127.87,925.7,128,925.19S134.27,900.63,134.4,900.12S140.65,876.27,140.8,875.73S147.02,853.6,147.2,853.02S153.37,833.66,153.6,832.99S159.63,817.43,160,816.63S165.69,805.86,166.4,804.85S170.68,798.64,172.8,798.51S177.07,798.19,179.2,798.32S184.99,803.9,185.6,804.86S191.75,817.87,192,818.56S198.27,839.11,198.4,839.63S204.72,867.7,204.8,868.11S211.14,903.47,211.2,903.81S217.02,945.42,217.6,946.36S223.94,925.18,224,924.83S230.37,870.8,230.4,870.56S236.78,812,236.8,811.78S243.18,749.81,243.2,749.6S249.58,685.48,249.6,685.27S255.98,620.32,256,620.12S262.38,555.75,262.4,555.54S268.78,493.19,268.8,492.96S275.17,434.02,275.2,433.79S281.57,379.62,281.6,379.36S287.96,331.23,288,330.94S294.34,290.01,294.4,289.65S300.7,256.93,300.8,256.48S306.99,232.83,307.2,232.2S310.4,217.4,313.6,217.4S323.2,217.4,326.4,217.4S332.59,231.57,332.8,232.2S339.1,256.03,339.2,256.48S345.54,289.3,345.6,289.65S351.96,330.64,352,330.94S358.37,379.1,358.4,379.36S364.77,433.55,364.8,433.79S371.18,492.74,371.2,492.96S377.58,555.33,377.6,555.54S383.98,619.91,384,620.12S390.38,685.06,390.4,685.27S396.78,749.39,396.8,749.6S403.18,811.55,403.2,811.78S409.57,870.32,409.6,870.56S415.94,924.48,416,924.83S421.82,947.31,422.4,946.36S428.74,904.15,428.8,903.81S435.12,868.52,435.2,868.11S441.47,840.15,441.6,839.63S447.75,819.25,448,818.56S453.79,805.83,454.4,804.86S458.67,798.45,460.8,798.32S465.08,798.37,467.2,798.51S472.89,803.85,473.6,804.85S479.63,815.82,480,816.63S486.17,832.32,486.4,832.99S492.62,852.43,492.8,853.02S499.05,875.19,499.2,875.73S505.47,899.6,505.6,900.12S511.87,924.67,512,925.19S517.42,948.92,518.4,949.98S524,947.42,524.8,946.39S531.01,925.32,531.2,924.71S537.35,906.37,537.6,905.68S543.63,890.64,544,889.84S549.81,878.55,550.4,877.59S555.73,870.28,556.8,869.21S561.15,865.2,563.2,864.79S567.49,864.06,569.6,864.3S574.67,866.51,576,867.55S581.59,873.2,582.4,874.24S588.26,883.01,588.8,883.94S594.79,895.32,595.2,896.16S601.26,909.53,601.6,910.31S607.7,925.03,608,925.77S614.11,941.16,614.4,941.89S618.9,957.36,620.8,958.03S626.78,947.27,627.2,946.42S633.21,932.87,633.6,932.04S639.78,919.76,640,919.33" style="fill: none; stroke: blue; stroke-width: 4;"></path>
    </g>
    <g>
     <g transform="translate(35,811)">
      <path style="stroke: red; stroke-width: 2; fill: none;" d="M0,0H-32m0,4v-8M0,0H32m0,4v-8"></path>
     </g>
     <g transform="translate(92,739)">
      <path style="stroke: red; stroke-width: 2; fill: none;" d="M0,0H-32m0,4v-8M0,0H32m0,4v-8M0,0V7m4,0h-8M0,0V-7m4,0h-8"></path>
     </g>
     <g transform="translate(149,669)">
      <path style="stroke: red; stroke-width: 2; fill: none;" d="M0,0H-32m0,4v-8M0,0H32m0,4v-8M0,0V15m4,0h-8M0,0V-15m4,0h-8"></path>
     </g>
     <g transform="translate(206,602)">
      <path style="stroke: red; stroke-width: 2; fill: none;" d="M0,0H-32m0,4v-8M0,0H32m0,4v-8M0,0V22m4,0h-8M0,0V-22m4,0h-8"></path>
     </g>
     <g transform="translate(263,538)">
      <path style="stroke: red; stroke-width: 2; fill: none;" d="M0,0H-32m0,4v-8M0,0H32m0,4v-8M0,0V30m4,0h-8M0,0V-30m4,0h-8"></path>
     </g>
     <g transform="translate(320,478)">
      <path style="stroke: red; stroke-width: 2; fill: none;" d="M0,0H-32m0,4v-8M0,0H32m0,4v-8M0,0V37m4,0h-8M0,0V-37m4,0h-8"></path>
     </g>
     <g transform="translate(377,424)">
      <path style="stroke: red; stroke-width: 2; fill: none;" d="M0,0H-32m0,4v-8M0,0H32m0,4v-8M0,0V45m4,0h-8M0,0V-45m4,0h-8"></path>
     </g>
     <g transform="translate(434,374)">
      <path style="stroke: red; stroke-width: 2; fill: none;" d="M0,0H-32m0,4v-8M0,0H32m0,4v-8M0,0V52m4,0h-8M0,0V-52m4,0h-8"></path>
     </g>
     <g transform="translate(491,331)">
      <path style="stroke: red; stroke-width: 2; fill: none;" d="M0,0H-32m0,4v-8M0,0H32m0,4v-8M0,0V60m4,0h-8M0,0V-60m4,0h-8"></path>
     </g>
     <g transform="translate(548,294)">
      <path style="stroke: red; stroke-width: 2; fill: none;" d="M0,0H-32m0,4v-8M0,0H32m0,4v-8M0,0V67m4,0h-8M0,0V-67m4,0h-8"></path>
     </g>
     <g transform="translate(605,263)">
      <path style="stroke: red; stroke-width: 2; fill: none;" d="M0,0H-32m0,4v-8M0,0H32m0,4v-8M0,0V75m4,0h-8M0,0V-75m4,0h-8"></path>
     </g>
     <path d="M30,806v10h10v-10zM87,734v10h10v-10zM144,664v10h10v-10zM201,596v10h10v-10zM258,533v10h10v-10zM315,473v10h10v-10zM372,419v10h10v-10zM429,369v10h10v-10zM486,326v10h10v-10zM543,289v10h10v-10zM600,258v10h10v-10z" style="stroke: cyan; fill: cyan;"></path>
    </g>
   </svg>
   <g>
    <g transform="translate(0,960)">
     <path d="M0,0h640M0,-24v24m16,-12v12m16,-12v12m16,-12v12m16,-24v24m16,-12v12m16,-12v12m16,-12v12m16,-24v24m16,-12v12m16,-12v12m16,-12v12m16,-24v24m16,-12v12m16,-12v12m16,-12v12m16,-24v24m16,-12v12m16,-12v12m16,-12v12m16,-24v24m16,-12v12m16,-12v12m16,-12v12m16,-24v24m16,-12v12m16,-12v12m16,-12v12m16,-24v24m16,-12v12m16,-12v12m16,-12v12m16,-24v24m16,-12v12m16,-12v12m16,-12v12m16,-24v24m16,-12v12m16,-12v12m16,-12v12m16,-24v24" style="stroke: black; stroke-width: 1;"></path>
     <g font-family="Arial" font-size="28" space="preserve" fill="black" text-anchor="middle">
      <text dy=".8em" transform="translate(0,6)">
       -10
      </text>
      <text dy=".8em" transform="translate(64,6)">
       -8
      </text>
      <text dy=".8em" transform="translate(128,6)">
       -6
      </text>
      <text dy=".8em" transform="translate(192,6)">
       -4
      </text>
      <text dy=".8em" transform="translate(256,6)">
       -2
      </text>
      <text dy=".8em" transform="translate(320,6)">
       0
      </text>
      <text dy=".8em" transform="translate(384,6)">
       2
      </text>
      <text dy=".8em" transform="translate(448,6)">
       4
      </text>
      <text dy=".8em" transform="translate(512,6)">
       6
      </text>
      <text dy=".8em" transform="translate(576,6)">
       8
      </text>
      <text dy=".8em" transform="translate(640,6)">
       10
      </text>
     </g>
    </g>
    <g>
     <path d="M0,0v960M36,960h-36m18,-37h-18m18,-38h-18m18,-37h-18m36,-38h-36m18,-37h-18m18,-37h-18m18,-38h-18m36,-37h-36m18,-37h-18m18,-38h-18m18,-37h-18m36,-38h-36m18,-37h-18m18,-37h-18m18,-38h-18m36,-37h-36m18,-37h-18m18,-38h-18m18,-37h-18m36,-38h-36m18,-37h-18m18,-37h-18m18,-38h-18m36,-37h-36m18,-37h-18" style="stroke: black; stroke-width: 1;"></path>
     <g font-family="Arial" font-size="28" space="preserve" fill="black" text-anchor="end">
      <text dy=".4em" transform="translate(-4,960)">
       0
      </text>
      <text dy=".4em" transform="translate(-4,810)">
       200
      </text>
      <text dy=".4em" transform="translate(-4,661)">
       400
      </text>
      <text dy=".4em" transform="translate(-4,511)">
       600
      </text>
      <text dy=".4em" transform="translate(-4,362)">
       800
      </text>
      <text dy=".4em" transform="translate(-4,212)">
       1000
      </text>
      <text dy=".4em" transform="translate(-4,63)">
       1200
      </text>
     </g>
    </g>
   </g>
  </g>
  <g transform="translate(120,80)" font-family="Arial" font-size="15" space="preserve">
   <path d="M0,0H456V160H0Z" style="fill: #f2f2f2; stroke: black; stroke-width: 1;"></path>
   <text fill="black" text-anchor="start" dy=".4em" transform="translate(114,24)">
    The Legend Title
   </text>
   <path d="M14,47v30h86v-30z" style="fill: url(#pat_3003_416); stroke: #000099; stroke-width: 1;"></path>
   <text fill="black" text-anchor="start" dy=".4em" transform="translate(114,62)">
    Histogram filled with random numbers
   </text>
   <path d="M14,99H100" style="stroke: blue; stroke-width: 4;"></path>
   <g transform="translate(114,104) scale(0.442)">
    <text fill="black" font-size="34">
     Function abs(
    </text>
    <g transform="translate(208)">
     <text fill="black" font-size="34" transform="translate(0,-20)">
      sin(x)
     </text>
     <path style="stroke: black; stroke-width: 2; fill: none;" d="M0,-12h82"></path>
     <text fill="black" font-size="34" transform="translate(34,21)">
      x
     </text>
    </g>
    <text fill="black" font-size="34" x="293">
     )
    </text>
   </g>
   <path d="M14,136H100" style="stroke: red; stroke-width: 2;"></path>
   <path d="M57,122V152" style="stroke: red; stroke-width: 2;"></path>
   <path d="M52,131v10h10v-10z" style="stroke: cyan; fill: cyan;"></path>
   <text fill="black" text-anchor="start" dy=".4em" transform="translate(114,137)">
    Graph with error bars
   </text>
  </g>
  <g transform="translate(382,4)" font-family="Arial" font-size="40" space="preserve">
   <text fill="black" text-anchor="middle" dy=".4em" transform="translate(219,25)">
    TLegend Example
   </text>
  </g>
 </g>
</svg>

<svg xmlns="http://www.w3.org/2000/svg" viewBox="0 0 1200 800" preserveAspectRatio="none" width="1200" height="800">
 <defs>
  <pattern id="pat_3003_416" patternUnits="userSpaceOnUse" width="4" height="4">
   <path d="M2,1h1v1h-1zM0,3h1v1h-1z" style="fill: green;"></path>
  </pattern>
 </defs>
 <path d="M0,0H1200V800H0Z" style="fill: white;"></path>
 <g>
  <g transform="rotate(-90,120,80) translate(-520,80)">
   <path d="M0,0H640V960H0Z" style="fill: white; stroke: black; stroke-width: 1;"></path>
   <svg x="0" y="0" overflow="hidden" width="640" height="960" viewBox="0 0 640 960">
    <g>
     <path d="M0,960h176v-1h3v1h3v-1h4v1h16v-1h3v1h3v-1h3v-4h3v1h4v1h3v-7h3v-3h3v2h3v-15h4v-2h3v4h3v-28h3v3h3v-26h4v-11h3v-34h3v-21h3v-24h3v-26h4v-24h3v-58h3v-50h3v-19h3v-72h4v-55h3v-71h3v-24h3v-73h3v-34h4v-67h3v-45h3v-22h3v-15h3v-41h4v-14h3v-39h3v26h3v-20h3v46h4v7h3v39h3v60h3v74h3v29h4v45h3v49h3v40h3v44h3v51h4v73h3v49h3v13h3v65h3v27h4v37h3v29h3v21h3v21h3v19h4v1h3v27h3v7h3v4h3v6h4v11h3v4h3v3h3v6h3v-3h4v2h3v-2h3v3h10v1h6v-2h3v2h189L640,963H0Z" style="stroke-linejoin: miter; stroke: #000099; stroke-width: 1; fill: url(#pat_3003_416);"></path>
    </g>
    <g>
     <path d="M0,919.33C0.22,919.76,6.01,931.22,6.4,932.04S12.38,945.58,12.8,946.42S17.3,958.7,19.2,958.03S25.31,942.62,25.6,941.89S31.7,926.51,32,925.77S38.06,911.09,38.4,910.31S44.39,897,44.8,896.16S50.66,884.87,51.2,883.94S56.79,875.27,57.6,874.24S62.67,868.58,64,867.55S68.29,864.54,70.4,864.3S74.75,864.38,76.8,864.79S82.13,868.14,83.2,869.21S89.01,876.64,89.6,877.59S95.63,889.03,96,889.84S102.15,904.99,102.4,905.68S108.61,924.1,108.8,924.71S114.4,945.35,115.2,946.39S120.62,951.04,121.6,949.98S127.87,925.7,128,925.19S134.27,900.63,134.4,900.12S140.65,876.27,140.8,875.73S147.02,853.6,147.2,853.02S153.37,833.66,153.6,832.99S159.63,817.43,160,816.63S165.69,805.86,166.4,804.85S170.68,798.64,172.8,798.51S177.07,798.19,179.2,798.32S184.99,803.9,185.6,804.86S191.75,817.87,192,818.56S198.27,839.11,198.4,839.63S204.72,867.7,204.8,868.11S211.14,903.47,211.2,903.81S217.02,945.42,217.6,946.36S223.94,925.18,224,924.83S230.37,870.8,230.4,870.56S236.78,812,236.8,811.78S243.18,749.81,243.2,749.6S249.58,685.48,249.6,685.27S255.98,620.32,256,620.12S262.38,555.75,262.4,555.54S268.78,493.19,268.8,492.96S275.17,434.02,275.2,433.79S281.57,379.62,281.6,379.36S287.96,331.23,288,330.94S294.34,290.01,294.4,289.65S300.7,256.93,300.8,256.48S306.99,232.83,307.2,232.2S310.4,217.4,313.6,217.4S323.2,217.4,326.4,217.4S332.59,231.57,332.8,232.2S339.1,256.03,339.2,256.48S345.54,289.3,345.6,289.65S351.96,330.64,352,330.94S358.37,379.1,358.4,379.36S364.77,433.55,364.8,433.79S371.18,492.74,371.2,492.96S377.58,555.33,377.6,555.54S383.98,619.91,384,620.12S390.38,685.06,390.4,685.27S396.78,749.39,396.8,749.6S403.18,811.55,403.2,811.78S409.57,870.32,409.6,870.56S415.94,924.48,416,924.83S421.82,947.31,422.4,946.36S428.74,904.15,428.8,903.81S435.12,868.52,435.2,868.11S441.47,840.15,441.6,839.63S447.75,819.25,448,818.56S453.79,805.83,454.4,804.86S458.67,798.45,460.8,798.32S465.08,798.37,467.2,798.51S472.89,803.85,473.6,804.85S479.63,815.82,480,816.63S486.17,832.32,486.4,832.99S492.62,852.43,492.8,853.02S499.05,875.19,499.2,875.73S505.47,899.6,505.6,900.12S511.87,924.67,512,925.19S517.42,948.92,518.4,949.98S524,947.42,524.8,946.39S531.01,925.32,531.2,924.71S537.35,906.37,537.6,905.68S543.63,890.64,544,889.84S549.81,878.55,550.4,877.59S555.73,870.28,556.8,869.21S561.15,865.2,563.2,864.79S567.49,864.06,569.6,864.3S574.67,866.51,576,867.55S581.59,873.2,582.4,874.24S588.26,883.01,588.8,883.94S594.79,895.32,595.2,896.16S601.26,909.53,601.6,910.31S607.7,925.03,608,925.77S614.11,941.16,614.4,941.89S618.9,957.36,620.8,958.03S626.78,947.27,627.2,946.42S633.21,932.87,633.6,932.04S639.78,919.76,640,919.33" style="fill: none; stroke: blue; stroke-width: 4;"></path>
    </g>
    <g>
     <g transform="translate(35,811)">
      <path style="stroke: red; stroke-width: 2; fill: none;" d="M0,0H-32m0,4v-8M0,0H32m0,4v-8"></path>
     </g>
     <g transform="translate(92,739)">
      <path style="stroke: red; stroke-width: 2; fill: none;" d="M0,0H-32m0,4v-8M0,0H32m0,4v-8M0,0V7m4,0h-8M0,0V-7m4,0h-8"></path>
     </g>
     <g transform="translate(149,669)">
      <path style="stroke: red; stroke-width: 2; fill: none;" d="M0,0H-32m0,4v-8M0,0H32m0,4v-8M0,0V15m4,0h-8M0,0V-15m4,0h-8"></path>
     </g>
     <g transform="translate(206,602)">
      <path style="stroke: red; stroke-width: 2; fill: none;" d="M0,0H-32m0,4v-8M0,0H32m0,4v-8M0,0V22m4,0h-8M0,0V-22m4,0h-8"></path>
     </g>
     <g transform="translate(263,538)">
      <path style="stroke: red; stroke-width: 2; fill: none;" d="M0,0H-32m0,4v-8M0,0H32m0,4v-8M0,0V30m4,0h-8M0,0V-30m4,0h-8"></path>
     </g>
     <g transform="translate(320,478)">
      <path style="stroke: red; stroke-width: 2; fill: none;" d="M0,0H-32m0,4v-8M0,0H32m0,4v-8M0,0V37m4,0h-8M0,0V-37m4,0h-8"></path>
     </g>
     <g transform="translate(377,424)">
      <path style="stroke: red; stroke-width: 2; fill: none;" d="M0,0H-32m0,4v-8M0,0H32m0,4v-8M0,0V45m4,0h-8M0,0V-45m4,0h-8"></path>
     </g>
     <g transform="translate(434,374)">
      <path style="stroke: red; stroke-width: 2; fill: none;" d="M0,0H-32m0,4v-8M0,0H32m0,4v-8M0,0V52m4,0h-8M0,0V-52m4,0h-8"></path>
     </g>
     <g transform="translate(491,331)">
      <path style="stroke: red; stroke-width: 2; fill: none;" d="M0,0H-32m0,4v-8M0,0H32m0,4v-8M0,0V60m4,0h-8M0,0V-60m4,0h-8"></path>
     </g>
     <g transform="translate(548,294)">
      <path style="stroke: red; stroke-width: 2; fill: none;" d="M0,0H-32m0,4v-8M0,0H32m0,4v-8M0,0V67m4,0h-8M0,0V-67m4,0h-8"></path>
     </g>
     <g transform="translate(605,263)">
      <path style="stroke: red; stroke-width: 2; fill: none;" d="M0,0H-32m0,4v-8M0,0H32m0,4v-8M0,0V75m4,0h-8M0,0V-75m4,0h-8"></path>
     </g>
     <path d="M30,806v10h10v-10zM87,734v10h10v-10zM144,664v10h10v-10zM201,596v10h10v-10zM258,533v10h10v-10zM315,473v10h10v-10zM372,419v10h10v-10zM429,369v10h10v-10zM486,326v10h10v-10zM543,289v10h10v-10zM600,258v10h10v-10z" style="stroke: cyan; fill: cyan;"></path>
    </g>
   </svg>
   <g>
    <g transform="translate(0,960)">
     <path d="M0,0h640M0,-24V0M16,-12V0M32,-12V0M48,-12V0M64,-24V0M80,-12V0M96,-12V0M112,-12V0M128,-24V0M144,-12V0M160,-12V0M176,-12V0M192,-24V0M208,-12V0M224,-12V0M240,-12V0M256,-24V0M272,-12V0M288,-12V0M304,-12V0M320,-24V0M336,-12V0M352,-12V0M368,-12V0M384,-24V0M400,-12V0M416,-12V0M432,-12V0M448,-24V0M464,-12V0M480,-12V0M496,-12V0M512,-24V0M528,-12V0M544,-12V0M560,-12V0M576,-24V0M592,-12V0M608,-12V0M624,-12V0M640,-24V0" style="stroke: black; stroke-width: 1;"></path>
     <g font-family="Arial" font-size="28" space="preserve" fill="black" text-anchor="middle">
      <text dy=".8em" transform="translate(0,6)">
       -10
      </text>
      <text dy=".8em" transform="translate(64,6)">
       -8
      </text>
      <text dy=".8em" transform="translate(128,6)">
       -6
      </text>
      <text dy=".8em" transform="translate(192,6)">
       -4
      </text>
      <text dy=".8em" transform="translate(256,6)">
       -2
      </text>
      <text dy=".8em" transform="translate(320,6)">
       0
      </text>
      <text dy=".8em" transform="translate(384,6)">
       2
      </text>
      <text dy=".8em" transform="translate(448,6)">
       4
      </text>
      <text dy=".8em" transform="translate(512,6)">
       6
      </text>
      <text dy=".8em" transform="translate(576,6)">
       8
      </text>
      <text dy=".8em" transform="translate(640,6)">
       10
      </text>
     </g>
    </g>
    <g>
     <path d="M0,0v960M36,960H0M18,923H0M18,885H0M18,848H0M36,810H0M18,773H0M18,736H0M18,698H0M36,661H0M18,624H0M18,586H0M18,549H0M36,511H0M18,474H0M18,437H0M18,399H0M36,362H0M18,325H0M18,287H0M18,250H0M36,212H0M18,175H0M18,138H0M18,100H0M36,63H0M18,26H0" style="stroke: black; stroke-width: 1;"></path>
     <g font-family="Arial" font-size="28" space="preserve" fill="black" text-anchor="end">
      <text dy=".4em" transform="translate(-4,960)">
       0
      </text>
      <text dy=".4em" transform="translate(-4,810)">
       200
      </text>
      <text dy=".4em" transform="translate(-4,661)">
       400
      </text>
      <text dy=".4em" transform="translate(-4,511)">
       600
      </text>
      <text dy=".4em" transform="translate(-4,362)">
       800
      </text>
      <text dy=".4em" transform="translate(-4,212)">
       1000
      </text>
      <text dy=".4em" transform="translate(-4,63)">
       1200
      </text>
     </g>
    </g>
   </g>
  </g>
  <g transform="translate(120,80)" font-family="Arial" font-size="15" space="preserve">
   <path d="M0,0H456V160H0Z" style="fill: #f2f2f2; stroke: black; stroke-width: 1;"></path>
   <text fill="black" text-anchor="start" dy=".4em" transform="translate(114,24)">
    The Legend Title
   </text>
   <path d="M14,47v30h86v-30z" style="fill: url(#pat_3003_416); stroke: #000099; stroke-width: 1;"></path>
   <text fill="black" text-anchor="start" dy=".4em" transform="translate(114,62)">
    Histogram filled with random numbers
   </text>
   <path d="M14,99H100" style="stroke: blue; stroke-width: 4;"></path>
   <g transform="translate(114,104) scale(0.442)">
    <text fill="black" font-size="34">
     Function abs(
    </text>
    <g transform="translate(208)">
     <text fill="black" font-size="34" transform="translate(0,-20)">
      sin(x)
     </text>
     <path style="stroke: black; stroke-width: 2; fill: none;" d="M0,-12h82"></path>
     <text fill="black" font-size="34" transform="translate(34,21)">
      x
     </text>
    </g>
    <text fill="black" font-size="34" x="293">
     )
    </text>
   </g>
   <path d="M14,136H100" style="stroke: red; stroke-width: 2;"></path>
   <path d="M57,122V152" style="stroke: red; stroke-width: 2;"></path>
   <path d="M52,131v10h10v-10z" style="stroke: cyan; fill: cyan;"></path>
   <text fill="black" text-anchor="start" dy=".4em" transform="translate(114,137)">
    Graph with error bars
   </text>
  </g>
  <g transform="translate(382,4)" font-family="Arial" font-size="40" space="preserve">
   <text fill="black" text-anchor="middle" dy=".4em" transform="translate(219,25)">
    TLegend Example
   </text>
  </g>
 </g>
</svg>
